X: 26489
T: Michael Gorman's
R: slip jig
M: 9/8
K: Dmajor
|:F3 A2F A2F|G3 B2G B2G|F3 A2F A2F|Bcd A2G FED:|
|:d3 f2d cBA|B2e e2d cBA|1 d3 f2d cBA|
Bcd A2G FED:|2 fed edc d2B|A2B A2G FED||

